public/assets/routes_avatar/invoiceCollection.svg

<?xml version="1.0" encoding="UTF-8"?>
<svg width="60px" height="60px" viewBox="0 0 60 60" version="1.1" xmlns="http://www.w3.org/2000/svg" xmlns:xlink="http://www.w3.org/1999/xlink">
    <!-- Generator: Sketch 49.3 (51167) - http://www.bohemiancoding.com/sketch -->
    <title>进项管理-进项发票采集</title>
    <desc>Created with Sketch.</desc>
    <defs>
        <path d="M19.1908033,14.1866117 L3.80728699,14.1866117 C3.27588678,14.1866117 2.84580837,14.5639487 2.84580837,15.030321 C2.84580837,15.4966933 3.27585139,15.8740302 3.80728699,15.8740302 L19.1907679,15.8740302 C19.7222035,15.8740302 20.1522466,15.4966933 20.1522466,15.030321 C20.1522466,14.5639487 19.7222389,14.1866117 19.1908033,14.1866117 Z M11.4990451,19.2488052 L3.80728699,19.2488052 C3.27588678,19.2488052 2.84580837,19.6261422 2.84580837,20.0925145 C2.84580837,20.5588868 3.27585139,20.9378686 3.80728699,20.9378686 L11.4990451,20.9378686 C12.0323551,20.9378686 12.4623628,20.5588557 12.4623628,20.0925145 C12.4623628,19.6261733 12.0323905,19.2488052 11.4990451,19.2488052 Z M21.9390909,0 L3.05903474,0 C1.37270729,0 0,1.08924675 0,2.42564475 L0,24.5727105 C0,25.9107843 1.37270726,27 3.05903474,27 L15.38532,27 L17.3082772,27 L18.0105629,27 L25,21.3923917 L25,2.4256758 C25,1.08924678 23.6272927,0 21.9390909,0 Z M17.3082772,25.2763964 L17.3082772,22.7815468 C17.3082772,22.3168193 17.7382849,21.9378375 18.2678814,21.9378375 L21.4696155,21.9378375 L17.3082772,25.2763964 Z M23.0770781,20.2488052 L18.2678814,20.2488052 C16.677288,20.2488052 15.38532,21.3841678 15.38532,22.7815468 L15.38532,25.3126436 L3.05903474,25.3126435 C2.4430759,25.3126435 1.92292186,24.9731985 1.92292186,24.5727415 L1.9229219,2.4256758 C1.9229219,2.02524984 2.44307593,1.68744959 3.05903477,1.68744959 L21.9390909,1.68744959 C22.5550144,1.68744959 23.0770782,2.02524984 23.0770782,2.4256758 L23.0770781,20.2488052 Z" id="path-1"></path>
        <path d="M25.7584448,23.5172281 L20.2410512,23.5172281 C20.1078034,23.5172281 20,23.6250315 20,23.7582792 C20,23.891527 20.1078034,23.9993304 20.2410512,23.9993304 L25.7584448,23.9993304 C25.8916926,23.9993304 25.999496,23.891527 25.999496,23.7582792 C25.999496,23.6250315 25.8916926,23.5172281 25.7584448,23.5172281 Z M21.5534409,22.7271159 L23.1303174,22.059538 C23.1557617,22.0488246 23.1785276,22.0334241 23.1986152,22.0140061 L25.8582132,19.3544081 C26.0463671,19.1662543 26.0477063,18.8595836 25.8595524,18.6714298 L25.3285702,18.1404476 C25.1404164,17.9522937 24.8337457,17.9536329 24.6455919,18.1417868 L21.9859939,20.8013848 C21.9665759,20.8208028 21.9511754,20.8442383 21.940462,20.8696826 L21.2722146,22.4458895 C21.2347177,22.5342749 21.2608316,22.6233299 21.3177464,22.6809144 C21.3746613,22.7384988 21.4643859,22.7646127 21.5534409,22.7271159 Z M24.9864115,18.4826063 L24.9877507,18.4812672 L25.5180633,19.0115798 L25.5167241,19.0129189 L25.1015804,19.4280626 L24.5712678,18.89775 L24.9864115,18.4826063 Z M22.3636407,21.1053771 L24.2304482,19.2385696 L24.7607608,19.7688822 L22.8939533,21.6356897 L21.9739413,22.0253891 L22.3636407,21.1053771 Z" id="path-2"></path>
    </defs>
    <g id="icon" stroke="none" stroke-width="1" fill="none" fill-rule="evenodd">
        <g id="进项管理-进项发票采集">
            <circle id="Oval-Copy" fill="#05DCAC" transform="translate(30.000000, 30.000000) scale(-1, 1) translate(-30.000000, -30.000000) " cx="30" cy="30" r="30"></circle>
            <g id="Group-36" transform="translate(15.000000, 16.000000)">
                <g id="Shape" fill-rule="nonzero" transform="translate(12.500000, 13.500000) scale(-1, 1) rotate(-180.000000) translate(-12.500000, -13.500000) ">
                    <use fill="#FFFFFF" fill-rule="evenodd" xlink:href="#path-1"></use>
                    <path stroke="#05DCAC" stroke-width="0.2" d="M19.1908033,14.2866117 L3.80728699,14.2866117 C3.32839396,14.2866117 2.94580837,14.6223182 2.94580837,15.030321 C2.94580837,15.4383351 3.32837128,15.7740302 3.80728699,15.7740302 L19.1907679,15.7740302 C19.6696836,15.7740302 20.0522466,15.4383351 20.0522466,15.030321 C20.0522466,14.6222996 19.6697113,14.2866117 19.1908033,14.2866117 Z M11.4990451,19.3488052 L3.80728699,19.3488052 C3.32839396,19.3488052 2.94580837,19.6845117 2.94580837,20.0925145 C2.94580837,20.5009105 3.32877881,20.8378686 3.80728699,20.8378686 L11.4990451,20.8378686 C11.9791425,20.8378686 12.3623628,20.5011186 12.3623628,20.0925145 C12.3623628,19.6842816 11.9795731,19.3488052 11.4990451,19.3488052 Z M21.9390909,0.1 L3.05903474,0.1 C1.42384388,0.1 0.1,1.14996355 0.1,2.42564475 L0.1,24.5727105 C0.1,25.8498144 1.42351625,26.9 3.05903474,26.9 L17.3082772,26.9 L17.9479842,26.9220006 L24.9,21.3923917 L24.9,2.4256758 C24.9,1.14974934 23.5758781,0.1 21.9390909,0.1 Z M17.2082772,25.2763964 L17.2082772,22.7815468 C17.2082772,22.258227 17.6860579,21.8378375 18.2678814,21.8378375 L21.4696155,21.8378375 L21.5321934,22.0158376 L17.3708551,25.3543964 L17.2082772,25.2763964 Z M23.0770781,20.3488052 L18.2678814,20.3488052 C16.7299181,20.3488052 15.48532,21.4424173 15.48532,22.7815468 L15.48532,25.3126436 L15.38532,25.4126436 L3.05903474,25.4126435 C2.39492033,25.4126435 1.82292186,25.0398867 1.82292186,24.5727415 L1.8229219,2.4256758 C1.8229219,1.95877453 2.39448146,1.58744959 3.05903477,1.58744959 L21.9390909,1.58744959 C22.6039528,1.58744959 23.1770782,1.95894302 23.1770782,2.4256758 L23.1770781,20.2488052 L23.0770781,20.3488052 Z"></path>
                </g>
                <circle id="Oval-10" fill="#05DCAC" cx="22.5" cy="20.5" r="7.5"></circle>
                <circle id="Oval-11" stroke="#FFFFFF" stroke-width="1.5" fill="#05DCAC" cx="23" cy="21" r="6"></circle>
                <g id="Shape" fill-rule="nonzero">
                    <use fill="#FFFFFF" fill-rule="evenodd" xlink:href="#path-2"></use>
                    <path stroke="#FFFFFF" stroke-width="0.2" d="M25.7584448,23.4172281 C25.9469211,23.4172281 26.099496,23.569803 26.099496,23.7582792 C26.099496,23.9467554 25.9469211,24.0993304 25.7584448,24.0993304 L20.2410512,24.0993304 C20.052575,24.0993304 19.9,23.9467554 19.9,23.7582792 C19.9,23.569803 20.052575,23.4172281 20.2410512,23.4172281 L25.7584448,23.4172281 Z M21.5924266,22.8192034 L21.5922466,22.8192794 C21.4694817,22.8709699 21.3355807,22.8412141 21.2466235,22.7512103 C21.1578222,22.6613644 21.1284806,22.5286417 21.180147,22.4068566 L21.8482985,20.8308769 C21.8641035,20.7933399 21.886826,20.7591313 21.9152832,20.7306741 L24.5748812,18.0710761 C24.8022574,17.8436999 25.1722426,17.8426986 25.3992809,18.0697369 L25.9302631,18.6007191 C26.1573014,18.8277574 26.1563001,19.1977426 25.9289239,19.4251188 L23.2681174,22.085905 C23.2390036,22.1140483 23.2058275,22.1362471 23.1693031,22.1516256 L21.5924266,22.8192034 Z M24.9877507,18.6226885 L24.7126891,18.89775 L25.1015804,19.2866413 L25.3766419,19.0115798 L24.9877507,18.6226885 Z M22.448124,21.1623152 L22.1613036,21.8394479 L22.8232426,21.564979 L24.6193394,19.7688822 L24.2304482,19.379991 L22.448124,21.1623152 Z"></path>
                </g>
                <path d="M3.53208138,17.0643087 C3.94522692,17.3987138 4.29577465,17.733119 4.58372457,18.0675241 L4.114241,18.5434084 C3.87636933,18.221865 3.53208138,17.8745981 3.08137715,17.5016077 L3.53208138,17.0643087 Z M7.09389671,22.8585209 C6.75586854,22.8585209 6.38654147,22.85209 5.99217527,22.8456592 C5.5915493,22.8392283 5.26604069,22.8006431 5.00312989,22.7363344 C4.75273865,22.659164 4.5399061,22.511254 4.35837246,22.2926045 C4.27699531,22.1832797 4.20187793,22.1318328 4.12676056,22.1318328 C4.00782473,22.1318328 3.79499218,22.414791 3.48200313,22.9935691 L3,22.5369775 C3.31298905,22.022508 3.58841941,21.6945338 3.83881064,21.5530547 L3.83881064,19.7909968 L3.01251956,19.7909968 L3.01251956,19.1736334 L4.44600939,19.1736334 L4.44600939,21.6237942 L4.5086072,21.6881029 C4.64632238,21.8553055 4.79029734,21.9839228 4.9342723,22.0675241 C5.11580595,22.1639871 5.38497653,22.2154341 5.74804382,22.2282958 C6.10485133,22.2347267 6.52425665,22.2411576 7,22.2411576 C7.31298905,22.2411576 7.62597809,22.2347267 7.9514867,22.2347267 C8.27073552,22.221865 8.51486698,22.2090032 8.68388106,22.1961415 L8.52738654,22.8585209 L7.09389671,22.8585209 Z M4.92801252,17.9581994 L5.5915493,17.9581994 L5.5915493,17 L6.22378717,17 L6.22378717,17.9581994 L7.01251956,17.9581994 L7.01251956,17.0128617 L7.65101721,17.0128617 L7.65101721,17.9581994 L8.37089202,17.9581994 L8.37089202,18.5819936 L7.65101721,18.5819936 L7.65101721,19.6688103 L8.57120501,19.6688103 L8.57120501,20.2990354 L7.65101721,20.2990354 L7.65101721,22.0096463 L7.01251956,22.0096463 L7.01251956,20.2990354 L6.07355243,20.2990354 C5.89827856,21.0257235 5.58528951,21.5659164 5.12832551,21.9196141 L4.73395931,21.3858521 C5.05946792,21.1414791 5.29107981,20.7813505 5.42879499,20.2990354 L4.70892019,20.2990354 L4.70892019,19.6688103 L5.55399061,19.6688103 C5.57902973,19.4630225 5.5915493,19.2508039 5.5915493,19.0192926 L5.5915493,18.5819936 L4.92801252,18.5819936 L4.92801252,17.9581994 Z M6.22378717,18.5819936 L6.22378717,18.8649518 C6.22378717,19.14791 6.20500782,19.4180064 6.1799687,19.6688103 L7.01251956,19.6688103 L7.01251956,18.5819936 L6.22378717,18.5819936 Z M9.90453834,18.221865 L9.23474178,18.221865 L9.23474178,17.5659164 L11.2253521,17.5659164 L11.2253521,18.221865 L10.5680751,18.221865 L10.5680751,20.85209 C10.8059468,20.7684887 11.0250391,20.6848875 11.2378717,20.6012862 L11.2378717,21.2700965 C10.687011,21.5016077 10.0610329,21.7202572 9.34741784,21.9196141 L9.15336463,21.2572347 C9.41627543,21.192926 9.66666667,21.1221865 9.90453834,21.0578778 L9.90453834,18.221865 Z M11.400626,17.2122186 L14.9311424,17.2122186 L14.9311424,17.8681672 L13.485133,17.8681672 C13.4600939,18.0353698 13.428795,18.2025723 13.3912363,18.3569132 L14.6995305,18.3569132 L14.6995305,21.5016077 L14.0610329,21.5016077 L14.0610329,18.9742765 L12.2519562,18.9742765 L12.2519562,21.5016077 L11.6197183,21.5016077 L11.6197183,18.3569132 L12.7464789,18.3569132 C12.7840376,18.1961415 12.8153365,18.0353698 12.8403756,17.8681672 L11.400626,17.8681672 L11.400626,17.2122186 Z M13.7668232,21.4437299 C14.2550861,21.8038585 14.6619718,22.1639871 15,22.5176849 L14.5305164,23 C14.2488263,22.6527331 13.8482003,22.2733119 13.3286385,21.8745981 L13.7668232,21.4437299 Z M12.8153365,19.2636656 L13.4663537,19.2636656 L13.4663537,20.3954984 C13.428795,21.096463 13.2410016,21.6623794 12.9029734,22.0868167 C12.571205,22.4726688 12.0328638,22.7749196 11.2816901,22.9871383 L10.9248826,22.414791 C11.6510172,22.2090032 12.1455399,21.9581994 12.4021909,21.6623794 C12.6463224,21.340836 12.7840376,20.9163987 12.8153365,20.3954984 L12.8153365,19.2636656 Z" id="进项" fill="#FFFFFF"></path>
            </g>
        </g>
    </g>
</svg>

<svg width="60" height="60" xmlns="http://www.w3.org/2000/svg" xmlns:xlink="http://www.w3.org/1999/xlink"><defs><path d="M19.19 14.187H3.808c-.531 0-.961.377-.961.843 0 .467.43.844.961.844h15.384c.531 0 .961-.377.961-.844 0-.466-.43-.843-.961-.843zM11.5 19.249H3.807c-.531 0-.961.377-.961.844 0 .466.43.845.961.845H11.5c.533 0 .963-.38.963-.845 0-.467-.43-.844-.963-.844zM21.939 0H3.06C1.373 0 0 1.09 0 2.426v22.147C0 25.91 1.373 27 3.059 27h14.952L25 21.392V2.426C25 1.089 23.627 0 21.94 0zm-4.63 25.276v-2.494c0-.465.43-.844.959-.844h3.202l-4.162 3.338zm5.768-5.027h-4.81c-1.59 0-2.882 1.135-2.882 2.533v2.53H3.06c-.616 0-1.136-.339-1.136-.74V2.427c0-.4.52-.739 1.136-.739h18.88c.616 0 1.138.338 1.138.739v17.823z" id="a"/><path d="M25.758 23.517h-5.517a.24.24 0 1 0 0 .482h5.517a.24.24 0 1 0 0-.482zm-4.205-.79l1.577-.667a.222.222 0 0 0 .069-.046l2.66-2.66a.484.484 0 0 0 0-.683l-.53-.53a.484.484 0 0 0-.683 0l-2.66 2.66a.214.214 0 0 0-.046.069l-.668 1.576a.212.212 0 0 0 .046.235.212.212 0 0 0 .235.046zm3.433-4.244l.002-.002.53.53-.001.002-.415.415-.53-.53.414-.415zm-2.622 2.622l1.866-1.866.53.53-1.866 1.867-.92.39.39-.92z" id="b"/></defs><g fill="none" fill-rule="evenodd"><circle fill="#05DCAC" transform="matrix(-1 0 0 1 60 0)" cx="30" cy="30" r="30"/><g transform="translate(15 16)"><g fill-rule="nonzero" transform="matrix(1 0 0 -1 0 27)"><use fill="#FFF" fill-rule="evenodd" xlink:href="#a"/><path stroke="#05DCAC" stroke-width=".2" d="M19.19 14.287H3.808c-.479 0-.861.335-.861.743s.382.744.861.744h15.384c.479 0 .861-.336.861-.744s-.382-.743-.861-.743zM11.5 19.349H3.807c-.479 0-.861.336-.861.744s.383.745.861.745H11.5c.48 0 .863-.337.863-.745 0-.409-.382-.744-.863-.744zM21.939.1H3.06C1.424.1.1 1.15.1 2.426v22.147C.1 25.85 1.424 26.9 3.059 26.9h14.25l.639.022 6.952-5.53V2.426C24.9 1.15 23.576.1 21.94.1zm-4.73 25.176v-2.494c0-.524.477-.944 1.059-.944h3.202l.062.178-4.161 3.338-.163-.078zm5.868-4.927h-4.81c-1.537 0-2.782 1.093-2.782 2.433v2.53l-.1.1H3.06c-.664 0-1.236-.372-1.236-.84V2.427c0-.467.571-.839 1.236-.839h18.88c.665 0 1.238.372 1.238.839v17.823l-.1.1z"/></g><circle fill="#05DCAC" cx="22.5" cy="20.5" r="7.5"/><circle stroke="#FFF" stroke-width="1.5" fill="#05DCAC" cx="23" cy="21" r="6"/><g fill-rule="nonzero"><use fill="#FFF" fill-rule="evenodd" xlink:href="#b"/><path stroke="#FFF" stroke-width=".2" d="M25.758 23.417a.34.34 0 1 1 0 .682h-5.517a.34.34 0 1 1 0-.682h5.517zm-4.166-.598h0a.311.311 0 0 1-.345-.068.312.312 0 0 1-.067-.344l.668-1.576a.314.314 0 0 1 .067-.1l2.66-2.66a.584.584 0 0 1 .824-.001l.531.53a.584.584 0 0 1-.001.825l-2.66 2.66a.321.321 0 0 1-.1.067l-1.577.667zm3.396-4.196l-.275.275.389.389.275-.275-.39-.39zm-2.54 2.54l-.287.676.662-.274 1.796-1.796-.389-.389-1.782 1.782z"/></g><path d="M3.532 17.064c.413.335.764.67 1.052 1.004l-.47.475c-.238-.321-.582-.668-1.033-1.041l.451-.438zm3.562 5.795c-.338 0-.707-.007-1.102-.013a4.513 4.513 0 0 1-.989-.11 1.341 1.341 0 0 1-.645-.443c-.081-.11-.156-.161-.231-.161-.12 0-.332.283-.645.862L3 22.537c.313-.514.588-.842.839-.984v-1.762h-.826v-.617h1.433v2.45l.063.064c.137.167.281.296.425.38.182.096.451.147.814.16.357.007.776.013 1.252.013.313 0 .626-.006.951-.006.32-.013.564-.026.733-.039l-.157.663H7.094zm-2.166-4.9h.664V17h.632v.958h.789v-.945h.638v.945h.72v.624h-.72v1.087h.92v.63h-.92v1.71h-.638V20.3h-.94c-.175.727-.488 1.267-.945 1.62l-.394-.533c.325-.245.557-.605.695-1.087h-.72v-.63h.845c.025-.206.038-.418.038-.65v-.437h-.664v-.624zm1.296.623v.283c0 .283-.019.553-.044.804h.833v-1.087h-.79zm3.68-.36h-.67v-.656h1.991v.656h-.657v2.63c.238-.084.457-.167.67-.25v.668c-.551.232-1.177.45-1.89.65l-.195-.663c.263-.064.514-.135.752-.2v-2.835zm1.497-1.01h3.53v.656h-1.446a5.61 5.61 0 0 1-.094.489H14.7v3.145h-.639v-2.528h-1.809v2.528h-.632v-3.145h1.126c.038-.16.07-.322.094-.489H11.4v-.656zm2.366 4.232c.488.36.895.72 1.233 1.074l-.47.482c-.281-.347-.682-.727-1.201-1.125l.438-.431zm-.952-2.18h.651v1.131c-.037.701-.225 1.267-.563 1.692-.332.386-.87.688-1.621.9l-.357-.572c.726-.206 1.22-.457 1.477-.753.244-.321.382-.746.413-1.267v-1.131z" fill="#FFF"/></g></g></svg>
